P2
104 12
255
0 0 0 0 0 0 0 0 4 0 53 188 241 252 230 151 9 0 2 0 0 0 0 0 0 0 0 0 0 0 0 0 0 0 1 0 26 235 243 242 38 0 2 0 0 0 0 0 0 0 4 0 104 251 247 251 251 251 251 251 251 251 248 250 251 251 251 249 250 248 227 184 103 6 0 1 0 0 0 0 0 0 1 0 9 226 251 249 251 251 251 249 250 251 251 251 251 251 251 251 251 251 251 251 
0 0 0 0 0 0 0 3 0 44 235 255 255 255 255 255 183 7 1 2 0 0 0 0 0 0 0 0 0 0 0 0 0 0 2 0 28 249 255 255 41 0 2 0 0 0 0 0 0 0 4 0 94 227 224 227 227 227 227 228 227 228 239 231 227 228 227 237 232 237 255 255 255 195 20 1 1 0 0 0 0 0 1 0 9 204 227 226 227 228 227 235 231 227 228 227 227 227 227 227 227 227 227 227 
0 0 0 0 0 0 3 0 36 230 255 255 139 52 203 255 255 178 3 2 1 0 0 0 0 0 0 0 0 0 0 0 0 0 2 0 28 246 255 254 40 0 2 0 0 0 0 0 0 0 0 0 2 5 5 5 5 5 5 5 5 6 14 8 5 5 5 13 9 15 58 208 251 255 153 0 4 0 0 0 0 0 0 0 0 5 6 6 6 6 6 12 9 6 6 6 6 6 6 6 6 6 6 6 
0 0 0 0 0 3 0 25 220 255 255 149 0 0 21 217 255 255 169 0 3 1 0 0 0 0 0 0 0 0 0 0 0 0 2 0 28 246 255 254 40 0 2 0 0 0 0 0 0 0 0 0 0 1 1 0 0 0 0 0 0 0 0 0 0 0 0 0 0 1 0 89 255 251 212 0 0 0 0 0 0 0 0 0 0 0 0 0 0 0 0 0 0 0 0 0 0 0 0 0 0 0 0 0 
0 0 0 0 2 0 19 210 255 255 163 0 3 5 0 33 225 255 255 158 0 3 1 0 0 0 0 0 0 0 0 0 0 0 2 0 28 246 255 254 40 0 2 0 0 0 0 0 0 0 0 0 1 0 0 0 0 0 0 0 0 0 0 0 0 0 0 0 0 0 26 182 250 255 177 0 3 0 0 0 0 0 0 0 0 11 12 12 11 11 11 11 11 11 11 11 11 11 11 11 11 11 11 11 
0 0 0 2 0 13 200 255 255 178 1 3 1 0 3 0 39 233 253 255 147 0 4 1 0 0 0 0 0 0 0 0 0 0 2 0 28 246 255 254 40 0 2 0 0 0 0 0 0 0 0 1 0 77 168 199 206 208 208 208 208 208 208 208 208 208 208 208 208 209 243 255 255 227 40 1 2 0 0 0 0 0 1 0 9 208 231 230 236 237 237 237 237 237 237 237 237 237 237 237 237 237 237 237 
0 0 2 2 7 190 255 255 190 7 2 2 0 0 0 4 0 50 240 252 255 138 0 4 1 0 0 0 0 0 0 0 0 0 2 0 28 246 255 254 40 0 2 0 0 0 0 0 0 0 3 0 72 255 255 255 255 255 255 255 255 255 255 255 255 255 255 255 255 255 241 206 135 26 0 1 0 0 0 0 0 0 1 0 10 234 255 255 241 237 237 237 237 237 237 237 237 237 237 237 237 237 237 236 
0 1 2 1 177 255 255 202 13 0 2 0 0 0 0 0 4 0 63 247 251 255 128 0 4 0 0 0 0 0 0 0 0 0 2 0 28 246 255 254 40 0 2 0 0 0 0 0 0 0 4 0 111 254 250 198 38 33 31 31 31 31 31 31 31 31 31 31 31 30 18 0 0 0 2 0 0 0 0 0 0 0 1 0 10 227 254 253 51 11 13 11 11 11 11 11 11 11 11 11 11 11 11 10 
1 3 0 167 255 255 212 20 0 2 0 0 0 0 0 0 0 4 0 73 251 250 255 115 0 5 0 0 0 0 0 0 0 0 2 0 28 246 255 254 40 0 2 0 0 0 0 0 0 0 4 0 105 255 255 166 0 0 0 0 0 0 0 0 0 0 0 0 0 0 0 0 4 1 0 0 0 0 0 0 0 0 1 0 10 229 255 255 39 0 0 0 0 0 0 0 0 0 0 0 0 0 0 0 
2 0 159 255 255 222 28 0 3 0 0 0 0 0 0 0 0 0 5 0 89 255 251 255 106 0 4 0 0 0 0 0 0 0 2 0 28 246 255 254 40 0 2 0 0 0 0 0 0 0 4 0 106 255 255 172 2 5 2 2 2 2 2 2 2 2 2 2 2 2 1 0 0 0 0 0 0 0 0 0 0 0 1 0 10 227 255 255 41 0 1 0 0 0 0 0 0 0 0 0 0 0 0 0 
0 146 255 254 225 36 0 3 0 0 0 0 0 0 0 0 0 0 0 5 0 99 255 251 255 97 0 2 0 0 0 0 0 0 2 0 28 246 255 254 41 0 2 0 0 0 0 0 0 0 4 0 106 255 255 171 0 3 0 0 0 0 0 0 0 0 0 0 0 0 0 0 0 0 0 0 0 0 0 0 0 0 1 0 10 237 255 254 220 213 213 213 213 213 213 213 213 213 213 213 213 213 213 213 
134 255 251 235 50 0 4 0 0 0 0 0 0 0 0 0 0 0 0 0 5 0 127 254 251 254 77 0 3 0 0 0 0 0 2 0 28 246 255 254 40 0 2 0 0 0 0 0 0 0 4 0 106 255 255 171 0 3 0 0 0 0 0 0 0 0 0 0 0 0 0 0 0 0 0 0 0 0 0 0 0 0 0 2 2 158 251 253 255 255 255 255 255 255 255 255 255 255 255 255 255 255 255 255 
